imgs/logo-white.svg

<svg xmlns="http://www.w3.org/2000/svg" width="288" height="76" fill="#fff" xmlns:v="https://vecta.io/nano"><path d="M71.04 66V14.16h20.556c3.504 0 6.372.708 8.604 2.124 2.256 1.392 3.924 3.18 5.004 5.364 1.104 2.184 1.656 4.44 1.656 6.768 0 2.856-.684 5.28-2.052 7.272-1.344 1.992-3.18 3.336-5.508 4.032v-1.8c3.264.744 5.736 2.292 7.416 4.644 1.704 2.352 2.556 5.028 2.556 8.028 0 3.072-.588 5.76-1.764 8.064s-2.928 4.104-5.256 5.4C99.948 65.352 97.092 66 93.684 66H71.04zm8.784-8.172h12.78c1.512 0 2.868-.3 4.068-.9 1.2-.624 2.136-1.488 2.808-2.592.696-1.128 1.044-2.46 1.044-3.996 0-1.392-.3-2.64-.9-3.744s-1.476-1.98-2.628-2.628c-1.152-.672-2.532-1.008-4.14-1.008H79.824v14.868zm0-22.968h11.664c1.248 0 2.364-.24 3.348-.72s1.764-1.188 2.34-2.124.864-2.088.864-3.456c0-1.8-.576-3.3-1.728-4.5s-2.76-1.8-4.824-1.8H79.824v12.6zm53.81 32.22c-3.888 0-7.284-.876-10.188-2.628s-5.16-4.164-6.768-7.236c-1.584-3.096-2.376-6.648-2.376-10.656 0-4.08.816-7.656 2.448-10.728s3.9-5.472 6.804-7.2 6.264-2.592 10.08-2.592c3.912 0 7.32.876 10.224 2.628s5.16 4.176 6.768 7.272c1.608 3.072 2.412 6.612 2.412 10.62 0 4.032-.816 7.596-2.448 10.692-1.608 3.072-3.864 5.484-6.768 7.236-2.904 1.728-6.3 2.592-10.188 2.592zm0-8.136c3.456 0 6.024-1.152 7.704-3.456s2.52-5.28 2.52-8.928c0-3.768-.852-6.768-2.556-9-1.704-2.256-4.26-3.384-7.668-3.384-2.328 0-4.248.528-5.76 1.584-1.488 1.032-2.592 2.484-3.312 4.356-.72 1.848-1.08 3.996-1.08 6.444 0 3.768.852 6.78 2.556 9.036 1.728 2.232 4.26 3.348 7.596 3.348zM161.69 66V13.08h8.676V66h-8.676zm35.047 1.08c-3.576 0-6.696-.9-9.36-2.7s-4.728-4.248-6.192-7.344-2.196-6.588-2.196-10.476c0-3.936.732-7.44 2.196-10.512 1.488-3.096 3.588-5.532 6.3-7.308 2.712-1.8 5.904-2.7 9.576-2.7 3.696 0 6.792.9 9.288 2.7 2.52 1.776 4.428 4.212 5.724 7.308s1.944 6.6 1.944 10.512c0 3.864-.648 7.356-1.944 10.476-1.296 3.096-3.228 5.544-5.796 7.344s-5.748 2.7-9.54 2.7zm1.332-7.776c2.328 0 4.2-.528 5.616-1.584 1.44-1.08 2.484-2.58 3.132-4.5.672-1.92 1.008-4.14 1.008-6.66 0-2.544-.336-4.764-1.008-6.66-.648-1.92-1.668-3.408-3.06-4.464-1.392-1.08-3.192-1.62-5.4-1.62-2.328 0-4.248.576-5.76 1.728-1.512 1.128-2.628 2.664-3.348 4.608-.72 1.92-1.08 4.056-1.08 6.408 0 2.376.348 4.536 1.044 6.48.72 1.92 1.812 3.444 3.276 4.572s3.324 1.692 5.58 1.692zM207.825 66V38.712h-1.08V14.16h8.748V66h-7.668zm34.934 1.08c-3.888 0-7.284-.876-10.188-2.628s-5.16-4.164-6.768-7.236c-1.584-3.096-2.376-6.648-2.376-10.656 0-4.08.816-7.656 2.448-10.728s3.9-5.472 6.804-7.2 6.264-2.592 10.08-2.592c3.912 0 7.32.876 10.224 2.628s5.16 4.176 6.768 7.272c1.608 3.072 2.412 6.612 2.412 10.62 0 4.032-.816 7.596-2.448 10.692-1.608 3.072-3.864 5.484-6.768 7.236-2.904 1.728-6.3 2.592-10.188 2.592zm0-8.136c3.456 0 6.024-1.152 7.704-3.456s2.52-5.28 2.52-8.928c0-3.768-.852-6.768-2.556-9-1.704-2.256-4.26-3.384-7.668-3.384-2.328 0-4.248.528-5.76 1.584-1.488 1.032-2.592 2.484-3.312 4.356-.72 1.848-1.08 3.996-1.08 6.444 0 3.768.852 6.78 2.556 9.036 1.728 2.232 4.26 3.348 7.596 3.348zM0 38h30c8.837 0 16 7.163 16 16s-7.163 16-16 16H0V38zm0-28h20c6.627 0 12 5.373 12 12s-5.373 12-12 12H0V10z"/></svg>

<svg width="288" height="76" viewBox="0 0 288 76" fill="none" xmlns="http://www.w3.org/2000/svg">
<path d="M71.04 66V14.16H91.596C95.1 14.16 97.968 14.868 100.2 16.284C102.456 17.676 104.124 19.464 105.204 21.648C106.308 23.832 106.86 26.088 106.86 28.416C106.86 31.272 106.176 33.696 104.808 35.688C103.464 37.68 101.628 39.024 99.3 39.72V37.92C102.564 38.664 105.036 40.212 106.716 42.564C108.42 44.916 109.272 47.592 109.272 50.592C109.272 53.664 108.684 56.352 107.508 58.656C106.332 60.96 104.58 62.76 102.252 64.056C99.948 65.352 97.092 66 93.684 66H71.04ZM79.824 57.828H92.604C94.116 57.828 95.472 57.528 96.672 56.928C97.872 56.304 98.808 55.44 99.48 54.336C100.176 53.208 100.524 51.876 100.524 50.34C100.524 48.948 100.224 47.7 99.624 46.596C99.024 45.492 98.148 44.616 96.996 43.968C95.844 43.296 94.464 42.96 92.856 42.96H79.824V57.828ZM79.824 34.86H91.488C92.736 34.86 93.852 34.62 94.836 34.14C95.82 33.66 96.6 32.952 97.176 32.016C97.752 31.08 98.04 29.928 98.04 28.56C98.04 26.76 97.464 25.26 96.312 24.06C95.16 22.86 93.552 22.26 91.488 22.26H79.824V34.86ZM133.634 67.08C129.746 67.08 126.35 66.204 123.446 64.452C120.542 62.7 118.286 60.288 116.678 57.216C115.094 54.12 114.302 50.568 114.302 46.56C114.302 42.48 115.118 38.904 116.75 35.832C118.382 32.76 120.65 30.36 123.554 28.632C126.458 26.904 129.818 26.04 133.634 26.04C137.546 26.04 140.954 26.916 143.858 28.668C146.762 30.42 149.018 32.844 150.626 35.94C152.234 39.012 153.038 42.552 153.038 46.56C153.038 50.592 152.222 54.156 150.59 57.252C148.982 60.324 146.726 62.736 143.822 64.488C140.918 66.216 137.522 67.08 133.634 67.08ZM133.634 58.944C137.09 58.944 139.658 57.792 141.338 55.488C143.018 53.184 143.858 50.208 143.858 46.56C143.858 42.792 143.006 39.792 141.302 37.56C139.598 35.304 137.042 34.176 133.634 34.176C131.306 34.176 129.386 34.704 127.874 35.76C126.386 36.792 125.282 38.244 124.562 40.116C123.842 41.964 123.482 44.112 123.482 46.56C123.482 50.328 124.334 53.34 126.038 55.596C127.766 57.828 130.298 58.944 133.634 58.944ZM161.69 66V13.08H170.366V66H161.69ZM196.737 67.08C193.161 67.08 190.041 66.18 187.377 64.38C184.713 62.58 182.649 60.132 181.185 57.036C179.721 53.94 178.989 50.448 178.989 46.56C178.989 42.624 179.721 39.12 181.185 36.048C182.673 32.952 184.773 30.516 187.485 28.74C190.197 26.94 193.389 26.04 197.061 26.04C200.757 26.04 203.853 26.94 206.349 28.74C208.869 30.516 210.777 32.952 212.073 36.048C213.369 39.144 214.017 42.648 214.017 46.56C214.017 50.424 213.369 53.916 212.073 57.036C210.777 60.132 208.845 62.58 206.277 64.38C203.709 66.18 200.529 67.08 196.737 67.08ZM198.069 59.304C200.397 59.304 202.269 58.776 203.685 57.72C205.125 56.64 206.169 55.14 206.817 53.22C207.489 51.3 207.825 49.08 207.825 46.56C207.825 44.016 207.489 41.796 206.817 39.9C206.169 37.98 205.149 36.492 203.757 35.436C202.365 34.356 200.565 33.816 198.357 33.816C196.029 33.816 194.109 34.392 192.597 35.544C191.085 36.672 189.969 38.208 189.249 40.152C188.529 42.072 188.169 44.208 188.169 46.56C188.169 48.936 188.517 51.096 189.213 53.04C189.933 54.96 191.025 56.484 192.489 57.612C193.953 58.74 195.813 59.304 198.069 59.304ZM207.825 66V38.712H206.745V14.16H215.493V66H207.825ZM242.759 67.08C238.871 67.08 235.475 66.204 232.571 64.452C229.667 62.7 227.411 60.288 225.803 57.216C224.219 54.12 223.427 50.568 223.427 46.56C223.427 42.48 224.243 38.904 225.875 35.832C227.507 32.76 229.775 30.36 232.679 28.632C235.583 26.904 238.943 26.04 242.759 26.04C246.671 26.04 250.079 26.916 252.983 28.668C255.887 30.42 258.143 32.844 259.751 35.94C261.359 39.012 262.163 42.552 262.163 46.56C262.163 50.592 261.347 54.156 259.715 57.252C258.107 60.324 255.851 62.736 252.947 64.488C250.043 66.216 246.647 67.08 242.759 67.08ZM242.759 58.944C246.215 58.944 248.783 57.792 250.463 55.488C252.143 53.184 252.983 50.208 252.983 46.56C252.983 42.792 252.131 39.792 250.427 37.56C248.723 35.304 246.167 34.176 242.759 34.176C240.431 34.176 238.511 34.704 236.999 35.76C235.511 36.792 234.407 38.244 233.687 40.116C232.967 41.964 232.607 44.112 232.607 46.56C232.607 50.328 233.459 53.34 235.163 55.596C236.891 57.828 239.423 58.944 242.759 58.944Z" fill="white"/>
<path d="M0 38.0001H30C38.8366 38.0001 46 45.1635 46 54.0001C46 62.8366 38.8366 70.0001 30 70.0001H0V38.0001Z" fill="white"/>
<path d="M0 10.0001H20C26.6274 10.0001 32 15.3726 32 22.0001C32 28.6275 26.6274 34.0001 20 34.0001H0V10.0001Z" fill="white"/>
</svg>
